X:1
T:Little Soldiers of the King
T:Little Soldiers of the King
T:Mrs. A. C. Blodgett
T:Mrs. A. C. Blodgett, 1896
T:Public Domain Courtesy of the Cyber Hymnal™
T:Public Domain Courtesy of the Cyber Hymnal™
C:Mrs. A. C. Blodgett
Z:Public Domain
Z:Courtesy of the Cyber Hymnal™
%%score ( 1 2 ) 3
L:1/8
Q:1/4=105
M:2/4
K:G
V:1 treble 
V:2 treble 
V:3 bass 
V:1
"^Introduction and Interlude" [Bd]4- | (de) x2 | [Acg]2 [Fdf]2 | [Fce]2 [Fcd]2 | [Bd]4- | (de) x2 | %6
w: ||||||
w: ||||||
w: ||||||
 [Acg]2 [Fdf]2 | [Fce]2 [Fcd]2 | [Bd]4- | ([Bd]^d) (eB) | [EGd]2 [EGc]2 | [CEB]2 [CEA]2 | %12
w: ||||||
w: ||||||
w: ||||||
 ([DG]F) (GB) | d2 [CDF]2 | [B,DG]4 |: [B,DB]2 [B,D]2 | [B,DB]2 [B,D]2 | (EF) (GA) | [CF]2 [Fc]2 | %19
w: |||1.~Tramp, tramp,|tramp, oh,|hear * us *|com- ing,|
w: |||2.~O- ver|vale and|hill * re- *|sound- ing,|
w: |||3.~Je- sus|is our|might- * y *|cap- tain,|
 [CE]2 (FA) | [CE]2 (FA) | [B,D]2 (EG) | (D edB) | [E^GBe]2 [EGB]2 | [E^GBe]3 d | [CEAc]2 [CE]2 | %26
w: Lit- tle *|sol- diers *|of the *|King, * * *|Flags un-|furled and|ban- ners|
w: Child- ren *|hear the *|might- y *|call, * * *|Come and|join the|roy- al|
w: His com- *|mand we *|must o- *|bey, * * *|For- ward|march and|nev- er|
 [EB]2 A2 | DG Be | [GBd]2 G[Ec] | [DGB]2 [CFA]2 | [G,B,DG]4 ||"^Refrain" B2 B2 | EF GE | B2 B2 | %34
w: fly- ing,|Loud- ly let our|watch- word ring.||||||
w: ar- my,|In our ranks there’s|room for all.|* On-|ward,|for- ward,||Let us|
w: fal- ter,|We shall sure- ly|win the day.||||||
 ^DEFB, | [G,B,E]2 (EF) | [B,EG]2 (GA) | [^DFB]2 [DFB]2 | [A,^DFB]4 | [B,DGB]2 [B,DGB]2 | %40
w: ||||||
w: |march a- *|gainst the *|foe; In|our|lead- er’s|
w: ||||||
 [DGB]3 A | (GF) (GB) | [GBe]2 [GBd]2 | cE BA | [B,DG]2 [B,D]2 | [CE]2 [CDF]2 | %46
w: ||||||
w: name ad-|vanc- * ing, *|On to|vic- t’ry we will|go. *||
w: ||||||
 [B,DG]4"^Play 3 times" :| %47
w: |
w: |
w: |
V:2
 x4 | B2 (fg) | x4 | x4 | x4 | B2 (fg) | x4 | x4 | x4 | x4 | x4 | x4 | x4 | x4 | x4 |: x4 | x4 | %17
 B,2 B,2 | x4 | x2 C2 | x2 C2 | x2 B,2 | B,2 G2 | x4 | x3 d | x4 | x2 A2 | (DG) (Be) | x2 G x | %29
 x4 | x4 || B2 B2 | x4 | B2 B2 | x4 | x2 B,2 | x2 [B,E]2 | x4 | x4 | x4 | x3 A | D2 D2 | x4 | %43
 (cE) (BA) | x4 | x4 | x4 :| %47
V:3
 G,,2 [G,B,D]2 | G,,2 [G,B,D]2 | D,2 [F,A,EF]2 | D,2 [F,A,CD]2 | G,,2 [G,B,D]2 | D,2 [G,B,D]2 | %6
 D,2 [F,A,CD]2 | D,2 [F,A,CD]2 | G,,2 [G,B,D]2 | G,,2 [G,B,D]2 | C,2 [E,G,]2 | C,2 [E,G,]2 | %12
 D,2 [G,B,]2 | D,2 [F,A,]2 | (A,D,/B,,/ G,,2) |: G,,2 [D,G,]2 | G,,2 [D,G,]2 | G,,2 [D,G,]2 | %18
 A,,2 [D,A,C]2 | D,,2 [D,A,]2 | D,,2 [D,A,]2 | G,,2 [D,G,]2 | ([G,,D,]2 [G,B,]2) | E,,2 [E,B,D]2 | %24
 E,,2 [E,B,D]2 | A,,2 [E,A,]2 | A,,2 [E,A,]2 | F,,2 [D,G,B,]2 | D,,2 [D,G,B,]2 | D,,2 [D,A,]2 | %30
 G,,4 || B,2 (B,2 | E,F,G,E,) | B,2 (B,2 | ^D,E,F,B,,) | E,,2 [B,,E,G,]2 | E,,2 [B,,E,G,]2 | %37
 B,,2 (F,^D,) | B,,4 | G,,2 [D,G,]2 | G,,2 [D,G,]2 | G,,2 [D,G,B,]2 | G,,2 [D,G,B,]2 | %43
 C,2 [E,G,C]2 | D,2 [D,G,]2 | [D,,D,]2 [D,,D,]2 | [G,,,G,,]4"^Play 3 times" :| %47

